X:9283
T:Lark in the Morning
M:6/8
L:1/8
R:Jig
K:G maj
|:AFA AFA|BGB BdB|AFA Ade|fed BdB|
|AFA AFA| BGB BGB|def afe|fed BdB:|
|:defa2a|baf afe|def afa|fed BAB|
|def~a3|bafa2f|~g3faf|edB BAB:|
|:d2 f fef|fef fef|d2f fef|edB BAB|
|d2f fef|fef fed|~g3 ~f3|edB BAB:|
|:Add fdd|edd fdd|Add fdd|edB BAF|
|Add fdd|ede fed|~g3 ~f3|edB BAF:|


